X:2
T:Invitation
C:Kaper & Webster
L:1/4
M:C
I:linebreak $
K:C
"Dm" (3E F e B2 |"DmM" (3z A c (3B A D |"Dm" E4 |"G7" z2 (3E D A |$"Dm" E2 (3E D A |"G7" E2 z D |
"Gm" A4 |"C7" z4 ||$[K:Eb]"Fm" (3G A g d2 |"FmM" (3z c e (3d c F |"Fm" G4 Ox/||
"Bb7" z2 (3G F c |$"Fm" G2 (3G F c |"Bb7" G2 z F |"Bbm" c4 |"Eb7" z4 ||$[K:Db]"Ebm" (3B d e f2 |
"Ab7" (3z B f (3=e =A =e ||[K:B]"C#m" d4 |"C#m6" z4 |$"C#m" (3G B c d2 |"F#7" (3z G d (3=d =G =d ||
[K:A]"Bm" c4 |"Bm6" z4 |$"Bm" (3F A B c2 |"E7" (3z F c (3=c =F =c ||[K:C]"Am" B4 |
"Gbø" z2 (3A B c |$"F7b5" B4 | (3z d B (3d B A |"E+" ^G4 | "_D.C. al Coda" z4 ||$
Ox/"Bb7" z2 (3F G F |"Db7b5" _B2 (3_A B A |"C+" c2 (3c _e _d |"Fm6" g4 | z4 |]

